X: 24
T:Walled Garden Waltz
M:3/4
L:1/8
C:Andy Cutting
R:Waltz
Z:Steve Mansfield
K:G
D2G3G | ABG2AB | cB AB AG | FG EF D2 | D2G3G | ABG2AB |
cB AB AG |1A6 :|2 A4Bc |: d2B2d2 | ed cd cB | cB AB AG|
FG EFD2 | d2B2d2 | ed cd cB | cB AB AG |1 A4Bc :|2 A6 ||
<end>
<start>
